X: 12
T:Keel Row,The. WCa.40
M:2/4
Q:120
S:Wm. Calvert MS, 1812, Leyburn, Yorks.
R:Country Dance
O:England
A:North Yorkshire
Z:vmp.Chris Partington, May 2003
K:G
c|B2GB|c2Ac|B2GB|A2D2|B2GB|c2Ac|BGAF|G3::!
c|Bddg|e2dc|B2GB|A2D2|Bddg|e2dc|BGAF|G3:||
W:Accompanied by fiddle fingering.|

